libs/icons/src/svg/package.svg

<svg width="16" height="16" viewBox="0 0 16 16" fill="none" xmlns="http://www.w3.org/2000/svg">
<path fill-rule="evenodd" clip-rule="evenodd" d="M5.33331 0C4.96512 0 4.66665 0.298477 4.66665 0.666667C4.66665 1.03486 4.96512 1.33333 5.33331 1.33333H10.6666C11.0348 1.33333 11.3333 1.03486 11.3333 0.666667C11.3333 0.298477 11.0348 0 10.6666 0H5.33331ZM2.66665 3.33333C2.66665 2.96514 2.96512 2.66667 3.33331 2.66667H12.6666C13.0348 2.66667 13.3333 2.96514 13.3333 3.33333C13.3333 3.70152 13.0348 4 12.6666 4H3.33331C2.96512 4 2.66665 3.70152 2.66665 3.33333ZM1.33331 6C1.33331 5.63181 1.63179 5.33333 1.99998 5.33333H14C14.3682 5.33333 14.6666 5.63181 14.6666 6V15.3333C14.6666 15.7015 14.3682 16 14 16H1.99998C1.63179 16 1.33331 15.7015 1.33331 15.3333V6ZM2.66665 6.66667V14.6667H13.3333V6.66667H2.66665Z" fill="#202327"/>
</svg>

<svg xmlns="http://www.w3.org/2000/svg" viewBox="0 0 16 16" class="sageicon"><path fill-rule="evenodd" d="M5.333 0a.667.667 0 0 0 0 1.333h5.334a.667.667 0 1 0 0-1.333H5.333ZM2.667 3.333c0-.368.298-.666.666-.666h9.334a.667.667 0 1 1 0 1.333H3.333a.667.667 0 0 1-.666-.667ZM1.333 6c0-.368.299-.667.667-.667h12c.368 0 .667.299.667.667v9.333A.667.667 0 0 1 14 16H2a.667.667 0 0 1-.667-.667V6Zm1.334.667v8h10.666v-8H2.667Z"/></svg>
